X: 061
M: 2/2
L: 1/8
K: G
d2dB e2eg | d4 c2ca | B2Bg A2AB | G4 :|\
|: !f!B4 |\
d2dB e2eg | d4 c2ca | B2Bg A2AB | G4 :|

